X: 2715
T: Banks Of Lough Gowna, The
R: jig
M: 6/8
K: Bminor
B3 BAF|FEF DFA|ABB BAF|cdg fdc|
~B3 BAF|FEF D2 A|def geg|fdB Bdc:|
|:def ~a3|afb afe|dFA def|geg fdB|
def ~a3|afb afe|def g2 g|fdB Bdc:|

